X: 445
T:Unknown
T:Mist Covered Mountain?
M:6/8
L:1/8
R:Jig
N:Posted to the woodenflute mailing list October 2001
Z:Kevin Gow
K:Gm
DGA B2d | cBc d2g | gfd Bcd | cBG FDC | DGA B2d |cBc d2g |!
gfd Bcd |1 cBA G2f :|2 cBF GBd |:g2g fga |gfd Bcd | cAF f2f |!
agf d=ef |g2a bag |fdg fdc |B2G Adc |1BGF GBd :|2BGF G3||

